X: 20912
M: 2/4
L: 1/16
K: F
V: 1 name="5"
c2 |\
f3a cgec | f6 (ef) | .g2.g2.g2 ab | c'4 a2z2 |\
g2g^f g2gf | g2a2 b4 | aaba ggag | f2a2f2 H|]
z2 |\
c2 |\
f2g2 a4 | fAcf a4 | g2a2 b4 | gceg b4 |\
e2f2 g4 | eGce g4 | cdef g2a2 | f4 "^D.C."z2 |]


